X: 21492
T: the Lads of Nairn
%R: jig
B: James Oswald "The Caledonian Pocket Companion" v.2 p.149 #2
Z: 2018 John Chambers <jc:trillian.mit.edu>
M: 6/8
L: 1/8
K: D
"_Brisk"F/E/ |\
D2F AFD | BEE E2F | D2F AFA | BAB d2e |\
fed BAF | BEE E2F | ABc d2A | FDD D2 :|
|: (f/e/) |\
d2f afd | bee e2f | d2f afd | bge afd |\
(g/a/b)g (f/g/a)f |  baf eba | fed BdF | ADD D2 :|
